X:65                         % number
T:Nobody loves a Fairy       % title
C:Arthur Le Clerq            % composer
O:http://www.raspberrytarts.com/fairyfifty.shtml % origin.
P:ABABAB
M:4/4                        % meter
L:1/4                        % length of shortest note
Q:120                        % tempo
%%staves 1 { (2 3) 4 }
V:1 clef=treble name="Voice" sname="Vc." % voice 1
V:2 clef=treble name="Piano" sname="Pno."
V:3 clef=treble
V:4 clef=bass
K:C                          % key
[P:A verse]
[Q: "allegro " 1/4=120]
[V:1] Z5 |
[V:2] G {B}c G {B} c       | [L:1/8] B>^ABd g4      | _A>_e A2 _A>_e A2     | [L:1/4] G {^c}d {^f}g z   | z [ECG,] z [ECG,] |
[V:4] C, [ECG,] G,, [ECG,] | D, [FB,G,] G,, [FB,G,] | [_E2C2_G,2] [E2C2G,2] | [D3B,3F,3] (3G,,/A,,/B,,/ | C, z G,, z        |
%============================================================================================================================
[V:1]        z2 z E | "C" G G     "C6" A A      | "Cmaj7" B B "C6" A2   | "C" z4  | "G7" z2 z D |
